X: 1
T: Miss Girdle
O: Logan's II
B: Logan's II
R: reel
Z: 2006 John Chambers <jc:trillian.mit.edu>
N: handwritten MS by Barbara McOwen (Dec 1980)
M: C|
L: 1/8
K: D
c \
|: "D"d2dB "A7"cABG | "G"d2dB "A7"cdef \
| "D"d2dB "Bm"cABG | "Em"gfed "A7"cdef \
:| "D"d2fd adfd | "D"d2fd "A7"cdef |
| "D"d2fd "Bm"adfd | "Em"gfed "A7"cdef \
|  "D"d2fd adfd | "D"d2fd "A7"cdef \
| "D"afge "Bm"fdec |["1-N" "Em"gfed "A7"cd"d.C."ef |]["last" "A7"ABde "D"fdd |]
